src/assets/cards/AS.svg

<svg clip-rule="evenodd" fill-rule="evenodd" stroke-linejoin="round" stroke-miterlimit="2" viewBox="0 0 934 1300" xmlns="http://www.w3.org/2000/svg"><g fill-rule="nonzero"><path d="m31.155 192.336v-11.403h11.09l23.595-121.968h13.423l26.016 121.968h8.944v11.403h-30.482v-11.403h8.229l-3.274-18.691h-30.771l-2.384 18.691h8.242v11.403zm54.907-43.404-13.373-65.292-12.531 65.292z"/><path d="m900.974 1107.66v11.41h-11.089l-23.596 121.97h-13.435l-26.004-121.97h-8.957v-11.41h30.495v11.41h-8.241l3.286 18.69h30.771l2.371-18.69h-8.229v-11.41zm-54.906 43.41 13.372 65.29 12.519-65.29z"/><path d="m460.708 697.257c.042-8.442-6.625-8.6-6.542-2.442-.583 30.954-26.75 46.196-45.75 42.579-29.333-5.575-38.666-34.675-38.416-51.812.875-52.905 54.125-91.913 102.166-159.73 35.209 61.213 93.334 109.292 96.792 156.609 4.542 62.908-75.042 86.375-86.417 13.054-.75-5.179-6.833-7.508-6.375-.271 1.75 20.092-.708 28.463 21.959 77.996h-59.25c13.125-23.146 20.916-51.563 21.833-75.983z"/><path d="m74.02 291.252c.042-3.633-3.733-1.937-4.241-.795-4.846 8.275-11.938 10.2-18.95 7.216-6.946-2.954-10.85-9.5-10.225-18.841 1.291-14.325 12.65-29.996 18.146-38.859 5.216-8.041 10.95-17.591 16.987-29.808 7.071 14.012 10.658 18 18.354 30.796 6.775 11.271 16.217 22.304 16.946 35.929 0 10.354-4.358 20.129-14.162 21.912-5.546 1.009-10.746-1.841-14.6-8.487-1.175-1.692-3.534-.808-3.496 1.508.687 8.721 3.979 16.596 11.787 25.884h-28.696c5.88-6.567 11.871-15.434 12.15-26.455z"/><path d="m858.916 1010.32c.042 3.62-3.708 1.93-4.208.79-4.875-8.27-11.958-10.2-18.958-7.22-6.959 2.96-10.834 9.5-10.25 18.85 1.291 14.32 12.666 29.99 18.166 38.85 5.209 8.05 10.959 17.6 17 29.81 7.042-14.01 10.625-18 18.334-30.8 6.791-11.26 16.208-22.3 16.958-35.92 0-10.36-4.375-20.14-14.167-21.92-5.541-1-10.75 1.84-14.583 8.49-1.208 1.69-3.542.81-3.5-1.51.667-8.72 3.958-16.596 11.792-25.879h-28.709c5.875 6.566 11.875 15.433 12.125 26.459z"/></g></svg>

<?xml version="1.0" encoding="UTF-8" standalone="no"?>
<!DOCTYPE svg PUBLIC "-//W3C//DTD SVG 1.1//EN" "http://www.w3.org/Graphics/SVG/1.1/DTD/svg11.dtd">
<svg width="100%" height="100%" viewBox="0 0 934 1300" version="1.1" xmlns="http://www.w3.org/2000/svg" xmlns:xlink="http://www.w3.org/1999/xlink" xml:space="preserve" xmlns:serif="http://www.serif.com/" style="fill-rule:evenodd;clip-rule:evenodd;stroke-linejoin:round;stroke-miterlimit:2;">
    <g id="AS">
        <g>
            <path d="M31.155,192.336L31.155,180.933L42.245,180.933L65.84,58.965L79.263,58.965L105.279,180.933L114.223,180.933L114.223,192.336L83.741,192.336L83.741,180.933L91.97,180.933L88.696,162.242L57.925,162.242L55.541,180.933L63.783,180.933L63.783,192.336L31.155,192.336ZM86.062,148.932L72.689,83.64L60.158,148.932L86.062,148.932Z" style="fill-rule:nonzero;"/>
            <path d="M900.974,1107.66L900.974,1119.07L889.885,1119.07L866.289,1241.04L852.854,1241.04L826.85,1119.07L817.893,1119.07L817.893,1107.66L848.388,1107.66L848.388,1119.07L840.147,1119.07L843.433,1137.76L874.204,1137.76L876.575,1119.07L868.346,1119.07L868.346,1107.66L900.974,1107.66ZM846.068,1151.07L859.44,1216.36L871.959,1151.07L846.068,1151.07Z" style="fill-rule:nonzero;"/>
        </g>
        <path d="M460.708,697.257C460.75,688.815 454.083,688.657 454.166,694.815C453.583,725.769 427.416,741.011 408.416,737.394C379.083,731.819 369.75,702.719 370,685.582C370.875,632.677 424.125,593.669 472.166,525.852C507.375,587.065 565.5,635.144 568.958,682.461C573.5,745.369 493.916,768.836 482.541,695.515C481.791,690.336 475.708,688.007 476.166,695.244C477.916,715.336 475.458,723.707 498.125,773.24L438.875,773.24C452,750.094 459.791,721.677 460.708,697.257Z" style="fill-rule:nonzero;"/>
        <path d="M74.02,291.252C74.062,287.619 70.287,289.315 69.779,290.457C64.933,298.732 57.841,300.657 50.829,297.673C43.883,294.719 39.979,288.173 40.604,278.832C41.895,264.507 53.254,248.836 58.75,239.973C63.966,231.932 69.7,222.382 75.737,210.165C82.808,224.177 86.395,228.165 94.091,240.961C100.866,252.232 110.308,263.265 111.037,276.89C111.037,287.244 106.679,297.019 96.875,298.802C91.329,299.811 86.129,296.961 82.275,290.315C81.1,288.623 78.741,289.507 78.779,291.823C79.466,300.544 82.758,308.419 90.566,317.707L61.87,317.707C67.75,311.14 73.741,302.273 74.02,291.252Z" style="fill-rule:nonzero;"/>
        <path d="M858.916,1010.32C858.958,1013.94 855.208,1012.25 854.708,1011.11C849.833,1002.84 842.75,1000.91 835.75,1003.89C828.791,1006.85 824.916,1013.39 825.5,1022.74C826.791,1037.06 838.166,1052.73 843.666,1061.59C848.875,1069.64 854.625,1079.19 860.666,1091.4C867.708,1077.39 871.291,1073.4 879,1060.6C885.791,1049.34 895.208,1038.3 895.958,1024.68C895.958,1014.32 891.583,1004.54 881.791,1002.76C876.25,1001.76 871.041,1004.6 867.208,1011.25C866,1012.94 863.666,1012.06 863.708,1009.74C864.375,1001.02 867.666,993.144 875.5,983.861L846.791,983.861C852.666,990.427 858.666,999.294 858.916,1010.32Z" style="fill-rule:nonzero;"/>
    </g>
</svg>
